prototype/src/img/cubecross-close.svg

<svg fill="none" height="40" viewBox="0 0 40 40" width="40" xmlns="http://www.w3.org/2000/svg"><path clip-rule="evenodd" d="m30.3884 34.2353-10.2708-10.2608-10.27015 10.2608-3.84745-3.8414 10.2713-10.2618-.0145-.015.0145-.0144-10.27023-10.26132 3.84531-3.84138 10.27122 10.2597 10.2713-10.2597 3.8459 3.84138-10.2708 10.26132.015.0144-.015.015 10.2713 10.2618zm-30.3884 5.7647h40v-40h-40z" fill="#ec6278" fill-rule="evenodd"/></svg>

<svg width="40" height="40" viewBox="0 0 40 40" fill="none" xmlns="http://www.w3.org/2000/svg">
<path fill-rule="evenodd" clip-rule="evenodd" d="M30.3884 34.2353L20.1176 23.9745L9.84745 34.2353L6 30.3939L16.2713 20.1321L16.2568 20.1171L16.2713 20.1027L6.00107 9.84138L9.84638 6L20.1176 16.2597L30.3889 6L34.2348 9.84138L23.964 20.1027L23.979 20.1171L23.964 20.1321L34.2353 30.3939L30.3884 34.2353ZM0 40H40V0H0V40Z" fill="#EC6278"/>
</svg>
